images/facebook.svg

<?xml version="1.0" encoding="iso-8859-1"?>
<!-- Generator: Adobe Illustrator 19.0.0, SVG Export Plug-In . SVG Version: 6.00 Build 0)  -->
<svg version="1.1" id="Capa_1" xmlns="http://www.w3.org/2000/svg" xmlns:xlink="http://www.w3.org/1999/xlink" x="0px" y="0px"
	 viewBox="0 0 512 512" style="enable-background:new 0 0 512 512;" xml:space="preserve">
<g>
	<g>
		<path d="M448,0H64C28.704,0,0,28.704,0,64v384c0,35.296,28.704,64,64,64h192V336h-64v-80h64v-64c0-53.024,42.976-96,96-96h64v80
			h-32c-17.664,0-32-1.664-32,16v64h80l-32,80h-48v176h96c35.296,0,64-28.704,64-64V64C512,28.704,483.296,0,448,0z"/>
	</g>
</g>
<g>
</g>
<g>
</g>
<g>
</g>
<g>
</g>
<g>
</g>
<g>
</g>
<g>
</g>
<g>
</g>
<g>
</g>
<g>
</g>
<g>
</g>
<g>
</g>
<g>
</g>
<g>
</g>
<g>
</g>
</svg>

<?xml version="1.0" encoding="UTF-8"?>
<svg width="512px" height="512px" viewBox="0 0 512 512" version="1.1" xmlns="http://www.w3.org/2000/svg" xmlns:xlink="http://www.w3.org/1999/xlink">
    <!-- Generator: Sketch 51.1 (57501) - http://www.bohemiancoding.com/sketch -->
    <title>facebook</title>
    <desc>Created with Sketch.</desc>
    <defs></defs>
    <g id="facebook" stroke="none" stroke-width="1" fill="none" fill-rule="evenodd">
        <g fill="#000000" fill-rule="nonzero" id="Shape">
            <path d="M448,0 L64,0 C28.704,0 0,28.704 0,64 L0,448 C0,483.296 28.704,512 64,512 L256,512 L256,336 L192,336 L192,256 L256,256 L256,192 C256,138.976 298.976,96 352,96 L416,96 L416,176 L384,176 C366.336,176 352,174.336 352,192 L352,256 L432,256 L400,336 L352,336 L352,512 L448,512 C483.296,512 512,483.296 512,448 L512,64 C512,28.704 483.296,0 448,0 Z"></path>
        </g>
    </g>
</svg>
